X:725
T:the Braes of Acklebie
A:North-West
M:C|
N:P2 1/2
O:England
R:Reel
%%TUNEURL: http://www.leeds.ac.uk/music/Info/RRTuneBk/gettune/0000055d.html
%%ID:0000055d
K:C
C2CD      EGGA | cded    cAGc | A/A/A A<G A2a2 | ecge           d2c2      |
[c2C2] CD EGGA | c<d e>d cAGc | AcGc      FcEc | d/c/B [cF][gE] [f2D2] C2 ::
efga      gece | afdf    edcG | A/A/A A2  agab | ecge            d2c2    |
efga      gece | afdf  e[Bd]cG| AcGc      FcEc | d/c/B cE        D2C2:|
